X:2925
T:Tordenskjolds-visa
C:anon.
O:Norway
R:March
Z:Transcribed by Frank Nordberg - http://www.musicaviva.com
F:http://abc.musicaviva.com/tunes/norway/tordenskjolds-visa/tordenskjolds-visa-1.abc
M:2/4
L:1/8
K:F
"F"CF F>G|"Gm"FE "C7"E2|"C7"DD D>E|"F"DC C2|
"F"FA A>B|"Bb"AG B2|"G"GF "C"EC|"C7"DE "F"F2|]
W:
W:
W:  From Musica Viva - http://www.musicaviva.com
W:  the Internet center for free sheet music downloads.

